src/Pure/16/symbolic/actions/mail-mark-notjunk-symbolic.svg

<?xml version="1.0" encoding="UTF-8" standalone="no"?>
<svg
   height="16"
   width="16"
   enable-background="new"
   version="1.1"
   id="svg1"
   sodipodi:docname="mail-mark-notjunk-symbolic.svg"
   inkscape:version="1.4.2 (ebf0e940d0, 2025-05-08)"
   xmlns:inkscape="http://www.inkscape.org/namespaces/inkscape"
   xmlns:sodipodi="http://sodipodi.sourceforge.net/DTD/sodipodi-0.dtd"
   xmlns="http://www.w3.org/2000/svg"
   xmlns:svg="http://www.w3.org/2000/svg">
  <sodipodi:namedview
     id="namedview1"
     pagecolor="#ffffff"
     bordercolor="#000000"
     borderopacity="0.25"
     inkscape:showpageshadow="2"
     inkscape:pageopacity="0.0"
     inkscape:pagecheckerboard="0"
     inkscape:deskcolor="#d1d1d1"
     inkscape:zoom="49.6875"
     inkscape:cx="8"
     inkscape:cy="8"
     inkscape:window-width="1920"
     inkscape:window-height="1010"
     inkscape:window-x="0"
     inkscape:window-y="0"
     inkscape:window-maximized="1"
     inkscape:current-layer="svg1" />
  <defs
     id="defs1">
    <style
       id="current-color-scheme"
       type="text/css">
        .ColorScheme-Text { color:#363636; }
     </style>
  </defs>
  <path
     id="path1"
     style="fill:currentColor"
     class="ColorScheme-Text"
     d="M 5.21875 1 L 4.90625 1.28125 L 1.28125 4.90625 L 1 5.2207031 L 1 10.779297 L 1.28125 11.09375 L 4.90625 14.71875 L 5.21875 14.998047 L 10.779297 14.998047 L 11.09375 14.71875 L 14.71875 11.09375 L 14.998047 10.779297 L 14.998047 5.2207031 L 14.71875 4.90625 L 11.09375 1.28125 L 10.779297 1 L 5.2207031 1 L 5.21875 1 z M 5.625 2 L 10.375 2 L 14 5.625 L 14 10.375 L 10.375 14 L 5.625 14 L 2 10.375 L 2 5.625 L 5.625 2 z M 4 7 L 4 9 L 12 9 L 12 7 L 4 7 z " />
</svg>

<svg width="16" height="16" version="1.1" xmlns="http://www.w3.org/2000/svg">
 <path d="m4 7h8v2h-8z" color="#000000" fill="#363636" font-weight="400" overflow="visible" style="text-decoration-line:none;text-indent:0;text-transform:none"/>
 <path d="m5.219 1-0.313 0.281-3.625 3.625-0.281 0.314v5.56l0.281 0.313 3.625 3.625 0.313 0.281h5.561l0.313-0.281 3.625-3.625 0.281-0.313v-5.56l-0.281-0.313-3.625-3.625-0.313-0.282h-5.56zm0.406 1h4.75l3.625 3.625v4.75l-3.625 3.625h-4.75l-3.625-3.625v-4.75z" color="#000000" fill="#363636" font-weight="400" overflow="visible" style="text-decoration-line:none;text-indent:0;text-transform:none"/>
</svg>
